packages/icons/web/flag_pt_small.svg

<svg width="24" height="24" viewBox="0 0 24 24" fill="none" xmlns="http://www.w3.org/2000/svg">
<path fill-rule="evenodd" clip-rule="evenodd" d="M5.5 6H18.5C19.6046 6 20.5 6.89543 20.5 8V16C20.5 17.1046 19.6046 18 18.5 18H5.5C4.39543 18 3.5 17.1046 3.5 16V8C3.5 6.89543 4.39543 6 5.5 6ZM5.5 6.5C4.67157 6.5 4 7.17157 4 8V16C4 16.8284 4.67157 17.5 5.5 17.5H18.5C19.3284 17.5 20 16.8284 20 16V8C20 7.17157 19.3284 6.5 18.5 6.5H5.5Z" fill="#D8DDE1"/>
<g clip-path="url(#clip0)">
<path fill-rule="evenodd" clip-rule="evenodd" d="M9.36035 6.5V17.5H18.4001C19.284 17.5 20.0004 16.7761 20.0004 15.8828V8.11716C20.0004 7.22406 19.2836 6.5 18.4003 6.5H9.36035Z" fill="#EE2734"/>
<path fill-rule="evenodd" clip-rule="evenodd" d="M4 15.8828C4 16.7759 4.71592 17.5 5.6 17.5H9.36V6.5H5.6C4.71632 6.5 4 7.2239 4 8.11716V15.8828Z" fill="#00924E"/>
<path fill-rule="evenodd" clip-rule="evenodd" d="M11.2749 11.9728C11.2749 10.9227 10.4325 10.071 9.39374 10.071C8.35486 10.071 7.5127 10.9227 7.5127 11.9728C7.5127 13.0231 8.35486 13.8747 9.39374 13.8747C10.4325 13.8747 11.2749 13.023 11.2749 11.9728Z" fill="#EE2734"/>
<path fill-rule="evenodd" clip-rule="evenodd" d="M10.7733 11.973C10.7733 11.2029 10.1559 10.5786 9.39409 10.5786C8.63233 10.5786 8.01465 11.2029 8.01465 11.973C8.01465 12.7433 8.63233 13.3675 9.39417 13.3675C10.1559 13.3675 10.7733 12.7433 10.7733 11.9731" fill="white"/>
<path fill-rule="evenodd" clip-rule="evenodd" d="M9.39411 14.4104C8.06243 14.4104 6.98291 13.3191 6.98291 11.9727C6.98291 10.6262 8.06243 9.53493 9.39411 9.53493C10.7259 9.53493 11.8051 10.6262 11.8051 11.9727C11.8051 13.3191 10.7259 14.4104 9.39411 14.4104ZM9.39411 8.9292C7.73171 8.9292 6.38379 10.2917 6.38379 11.9728C6.38379 13.6535 7.73171 15.0164 9.39419 15.0164C11.0566 15.0164 12.4045 13.6535 12.4045 11.9728C12.4045 10.2917 11.0566 8.9292 9.39411 8.9292Z" fill="#FCFF2C"/>
</g>
<defs>
<clipPath id="clip0">
<rect x="4" y="6.5" width="16" height="11" fill="white"/>
</clipPath>
</defs>
</svg>

<svg width="24" height="24" fill="none" xmlns="http://www.w3.org/2000/svg">
    <path fill-rule="evenodd" clip-rule="evenodd" d="M5.5 6h13a2 2 0 012 2v8a2 2 0 01-2 2h-13a2 2 0 01-2-2V8a2 2 0 012-2zm0 .5A1.5 1.5 0 004 8v8a1.5 1.5 0 001.5 1.5h13A1.5 1.5 0 0020 16V8a1.5 1.5 0 00-1.5-1.5h-13z" fill="#D8DDE1"/>
    <g clip-path="url(#clip0)" fill-rule="evenodd" clip-rule="evenodd">
        <path d="M9.36 6.5v11h9.04c.884 0 1.6-.724 1.6-1.617V8.117c0-.893-.716-1.617-1.6-1.617H9.36z" fill="#EE2734"/>
        <path d="M4 15.883c0 .893.716 1.617 1.6 1.617h3.76v-11H5.6c-.884 0-1.6.724-1.6 1.617v7.766z" fill="#00924E"/>
        <path d="M11.275 11.973c0-1.05-.843-1.902-1.881-1.902a1.892 1.892 0 00-1.881 1.902c0 1.05.842 1.902 1.88 1.902a1.892 1.892 0 001.882-1.902z" fill="#EE2734"/>
        <path d="M10.773 11.973c0-.77-.617-1.394-1.379-1.394s-1.38.624-1.38 1.394c0 .77.618 1.394 1.38 1.394.762 0 1.38-.624 1.38-1.394" fill="#fff"/>
        <path d="M9.394 14.41c-1.332 0-2.411-1.09-2.411-2.437 0-1.347 1.08-2.438 2.411-2.438 1.332 0 2.411 1.091 2.411 2.438 0 1.346-1.08 2.437-2.41 2.437zm0-5.48c-1.662 0-3.01 1.362-3.01 3.043 0 1.68 1.348 3.043 3.01 3.043 1.663 0 3.01-1.363 3.01-3.043 0-1.681-1.347-3.044-3.01-3.044z" fill="#FCFF2C"/>
    </g>
    <defs>
        <clipPath id="clip0">
            <path fill="#fff" d="M4 6.5h16v11H4z"/>
        </clipPath>
    </defs>
</svg>
